X: 38
T:Durham Hornpipe. WI.038
M:C|
Q:180
S:Wm Irwin, 1838 MS, AGG's Transcription
R:Hornipe
O:England
A:Lake District
Z:vmp.Chris Partington.2005
K:D
(3ABc|dfec dABG|FGEF D2d2|ceAe ceAe|gfgd cABc|!
dfec dABG|FGEF D2d2|(3cBA Bc dfec|d2d2 d2:|!
|:cB|Acec Adfd|Acec Adfd|faea faea|gefd cABc|!
dfec dABG|FGEF D2d2|(3cBA Bc dfec|d2d2 d2:|]
